Sources/FrostedUI/Resources/Icons.xcassets/profileX20.imageset/profile-x-20.svg

<svg width="20" height="20" viewBox="0 0 20 20" fill="none" xmlns="http://www.w3.org/2000/svg" data-fui-icon="true">
  <path
    d="M10.0013 10.292C10.4803 10.292 10.945 10.3357 11.391 10.4199C11.7975 10.4972 12.0653 10.8893 11.9886 11.2959C11.9117 11.7026 11.5185 11.9702 11.1117 11.8936C10.7596 11.8271 10.3887 11.792 10.0013 11.792C9.96434 11.792 9.92755 11.7923 9.89197 11.793H9.89099C9.7818 11.7949 9.67349 11.8001 9.56677 11.8076C9.54535 11.8091 9.52363 11.8108 9.50232 11.8125C9.40669 11.8202 9.31169 11.8297 9.21814 11.8418C9.18619 11.8459 9.15411 11.8508 9.12244 11.8555C9.04795 11.8664 8.97386 11.8789 8.90076 11.8926C8.87412 11.8976 8.84711 11.9019 8.82068 11.9072C6.9191 12.2918 5.50442 13.6035 4.85681 15.3545C4.78849 15.5393 4.8255 15.7053 4.94568 15.8486C5.07626 16.0041 5.30645 16.125 5.58142 16.125H10.2094C10.6233 16.1252 10.9592 16.4611 10.9594 16.875C10.9592 17.2889 10.6233 17.6248 10.2094 17.625H5.58142C4.8747 17.625 4.21934 17.3168 3.79626 16.8125C3.36291 16.2957 3.17739 15.5701 3.44958 14.834C4.2715 12.6117 6.1004 10.9235 8.53064 10.4355C8.55616 10.4304 8.58214 10.4258 8.60779 10.4209C8.71619 10.4004 8.82617 10.3829 8.93689 10.3672C8.95826 10.3641 8.97989 10.3603 9.00134 10.3574C9.12292 10.3413 9.24624 10.3286 9.37048 10.3184C9.40704 10.3154 9.44408 10.313 9.48083 10.3105C9.60736 10.302 9.73549 10.2952 9.86462 10.293L10.0013 10.292ZM16.1381 12.8037C16.431 12.5109 16.9057 12.5108 17.1986 12.8037C17.4908 13.0966 17.4912 13.5716 17.1986 13.8643L16.0619 15L17.1986 16.1367C17.4909 16.4296 17.4911 16.9045 17.1986 17.1973C16.9059 17.49 16.431 17.4897 16.1381 17.1973L15.0013 16.0605L13.8646 17.1973C13.5718 17.4899 13.0969 17.4898 12.8041 17.1973C12.5114 16.9044 12.5114 16.4296 12.8041 16.1367L13.9398 15L12.8041 13.8643C12.5113 13.5715 12.5115 13.0966 12.8041 12.8037C13.097 12.5109 13.5717 12.5108 13.8646 12.8037L15.0013 13.9395L16.1381 12.8037ZM10.0013 1.54199C12.1412 1.5422 13.8763 3.27701 13.8763 5.41699C13.8762 7.55684 12.1411 9.29178 10.0013 9.29199C7.86133 9.29198 6.12651 7.55695 6.12634 5.41699C6.12634 3.27689 7.86123 1.542 10.0013 1.54199ZM10.0013 3.04199C8.68965 3.042 7.62634 4.10532 7.62634 5.41699C7.62651 6.72852 8.68976 7.79198 10.0013 7.79199C11.3127 7.79178 12.3762 6.72839 12.3763 5.41699C12.3763 4.10545 11.3128 3.0422 10.0013 3.04199Z"
    fill="currentColor"
  />
</svg>

<svg xmlns="http://www.w3.org/2000/svg" width="20" height="20" fill="none" data-fui-icon="true" viewBox="0 0 20 20"><path fill="currentColor" d="M10.001 10.292q.72.001 1.39.128a.75.75 0 0 1-.28 1.474 6 6 0 0 0-1.219-.101h-.001a6 6 0 0 0-.673.049l-.096.013a6 6 0 0 0-.221.038l-.08.014c-1.902.385-3.317 1.697-3.964 3.448a.47.47 0 0 0 .089.494c.13.155.36.276.635.276h4.628a.75.75 0 0 1 0 1.5H5.581a2.33 2.33 0 0 1-1.785-.812 1.97 1.97 0 0 1-.346-1.979c.821-2.222 2.65-3.91 5.08-4.398l.078-.015q.162-.03.329-.054l.064-.01q.183-.023.37-.039l.11-.008q.189-.013.384-.017zm6.137 2.512a.75.75 0 1 1 1.06 1.06L16.063 15l1.137 1.137a.75.75 0 0 1-1.06 1.06L15 16.061l-1.136 1.136a.75.75 0 0 1-1.06-1.06L13.94 15l-1.136-1.136a.75.75 0 0 1 1.06-1.06l1.137 1.136zM10.001 1.542a3.875 3.875 0 1 1 0 7.75 3.875 3.875 0 0 1 0-7.75m0 1.5a2.375 2.375 0 1 0 0 4.75 2.375 2.375 0 0 0 0-4.75"/></svg>
